app/assets/images/heroicons/micro/home.svg

<svg width="16" height="16" viewBox="0 0 16 16" fill="none" xmlns="http://www.w3.org/2000/svg">
<path d="M8.54253 2.23214C8.40101 2.08388 8.20498 2 8.00002 2C7.79506 2 7.59902 2.08388 7.4575 2.23214L2.2075 7.73214C2.00024 7.94928 1.9424 8.26908 2.06049 8.54505C2.17858 8.82102 2.44984 9 2.75002 9H4V13C4 13.5523 4.44772 14 5 14H6C6.55228 14 7 13.5523 7 13V12C7 11.4477 7.44772 11 8 11C8.55228 11 9 11.4477 9 12V13C9 13.5523 9.44772 14 10 14H11C11.5523 14 12 13.5523 12 13V9H13.25C13.5502 9 13.8215 8.82102 13.9395 8.54505C14.0576 8.26908 13.9998 7.94928 13.7925 7.73214L8.54253 2.23214Z" fill="#0F172A"/>
</svg>

<svg xmlns="http://www.w3.org/2000/svg" viewBox="0 0 16 16" fill="currentColor" aria-hidden="true" data-slot="icon">
  <path d="M8.543 2.232a.75.75 0 0 0-1.085 0l-5.25 5.5A.75.75 0 0 0 2.75 9H4v4a1 1 0 0 0 1 1h1a1 1 0 0 0 1-1v-1a1 1 0 1 1 2 0v1a1 1 0 0 0 1 1h1a1 1 0 0 0 1-1V9h1.25a.75.75 0 0 0 .543-1.268l-5.25-5.5Z"/>
</svg>
